azure-patterns/svg-lightbulb-grey.svg

<svg xmlns="http://www.w3.org/2000/svg" viewBox="0 0 31 33">
                                
                            
    <rect width="30.4304" height="32.3791" fill="black" fill-opacity="0"></rect>
    <path d="M15.2152 6.07111C16.4726 6.07111 17.656 6.3109 18.7654 6.79047C19.8749 7.27005 20.8417 7.9209 21.6658 8.74302C22.49 9.56515 23.1424 10.5296 23.6232 11.6363C24.1039 12.743 24.3443 13.9235 24.3443 15.1777C24.3443 15.8418 24.3021 16.4636 24.2175 17.0433C24.133 17.623 23.9983 18.179 23.8134 18.7113C23.6285 19.2436 23.396 19.7653 23.116 20.2765C22.836 20.7877 22.5005 21.3121 22.1096 21.8496C21.8032 22.2712 21.5337 22.6507 21.3013 22.9879C21.0688 23.3252 20.8786 23.6651 20.7307 24.0077C20.5828 24.3502 20.4718 24.7191 20.3979 25.1144C20.3239 25.5097 20.2869 25.9761 20.2869 26.5136V29.3436C20.2869 29.7652 20.2077 30.1605 20.0492 30.5294C19.8907 30.8983 19.6741 31.2197 19.3994 31.4938C19.1247 31.7678 18.8024 31.9839 18.4326 32.142C18.0628 32.3001 17.6665 32.3792 17.2439 32.3792H13.1865C12.7639 32.3792 12.3676 32.3001 11.9978 32.142C11.628 31.9839 11.3057 31.7678 11.031 31.4938C10.7563 31.2197 10.5397 30.8983 10.3812 30.5294C10.2227 30.1605 10.1435 29.7652 10.1435 29.3436V26.4978C10.1435 25.9602 10.1065 25.4965 10.0325 25.1065C9.95856 24.7165 9.84497 24.3502 9.69177 24.0077C9.53856 23.6651 9.34837 23.3252 9.1212 22.9879C8.89402 22.6507 8.62723 22.2712 8.32081 21.8496C7.92987 21.3121 7.59439 20.7877 7.31439 20.2765C7.03439 19.7653 6.80193 19.2436 6.61703 18.7113C6.43212 18.179 6.2974 17.623 6.21287 17.0433C6.12834 16.4636 6.08608 15.8418 6.08608 15.1777C6.08608 13.9235 6.32646 12.743 6.80722 11.6363C7.28798 10.5296 7.94043 9.56515 8.76459 8.74302C9.58875 7.9209 10.5555 7.27005 11.665 6.79047C12.7744 6.3109 13.9578 6.07111 15.2152 6.07111ZM18.2582 28.3318H12.1722V29.3436C12.1722 29.6176 12.2725 29.8548 12.4733 30.0551C12.6741 30.2553 12.9118 30.3555 13.1865 30.3555H17.2439C17.5186 30.3555 17.7563 30.2553 17.9571 30.0551C18.1579 29.8548 18.2582 29.6176 18.2582 29.3436V28.3318ZM18.2582 26.3081C18.2688 25.4332 18.3771 24.6823 18.5831 24.0551C18.7892 23.428 19.0428 22.8588 19.3439 22.3476C19.645 21.8364 19.9673 21.3516 20.3107 20.8931C20.6541 20.4346 20.9764 19.9392 21.2775 19.4069C21.5786 18.8747 21.8269 18.2713 22.0224 17.5967C22.2179 16.9221 22.3156 16.1158 22.3156 15.1777C22.3156 14.1975 22.1307 13.2779 21.7609 12.4189C21.3911 11.5599 20.8839 10.8089 20.2394 10.1659C19.5949 9.52299 18.842 9.01706 17.9809 8.64816C17.1197 8.27926 16.1978 8.09481 15.2152 8.09481C14.2326 8.09481 13.3107 8.27926 12.4495 8.64816C11.5884 9.01706 10.8355 9.52299 10.191 10.1659C9.54648 10.8089 9.03931 11.5599 8.66949 12.4189C8.29968 13.2779 8.11477 14.1975 8.11477 15.1777C8.11477 16.1158 8.21251 16.9221 8.40798 17.5967C8.60346 18.2713 8.85176 18.8747 9.15289 19.4069C9.45403 19.9392 9.77629 20.4346 10.1197 20.8931C10.4631 21.3516 10.7854 21.8364 11.0865 22.3476C11.3876 22.8588 11.6412 23.428 11.8473 24.0551C12.0533 24.6823 12.1616 25.4332 12.1722 26.3081H18.2582ZM15.2152 4.04742C14.9405 4.04742 14.7027 3.94728 14.502 3.74702C14.3012 3.54676 14.2009 3.30961 14.2009 3.03557V1.01187C14.2009 0.737829 14.3012 0.500679 14.502 0.300416C14.7027 0.100154 14.9405 2.39741e-05 15.2152 2.39741e-05C15.4899 2.39741e-05 15.7277 0.100154 15.9284 0.300416C16.1292 0.500679 16.2295 0.737829 16.2295 1.01187V3.03557C16.2295 3.30961 16.1292 3.54676 15.9284 3.74702C15.7277 3.94728 15.4899 4.04742 15.2152 4.04742ZM1.01435 14.6718C0.739628 14.6718 0.50189 14.5717 0.301134 14.3714C0.100378 14.1712 0 13.934 0 13.66C0 13.3859 0.100378 13.1488 0.301134 12.9485C0.50189 12.7483 0.739628 12.6481 1.01435 12.6481H3.04304C3.31776 12.6481 3.5555 12.7483 3.75625 12.9485C3.95701 13.1488 4.05739 13.3859 4.05739 13.66C4.05739 13.934 3.95701 14.1712 3.75625 14.3714C3.5555 14.5717 3.31776 14.6718 3.04304 14.6718H1.01435ZM0.966799 20.5532C0.966799 20.3424 1.02755 20.1553 1.14906 19.9919C1.27057 19.8285 1.42643 19.7047 1.61661 19.6204C1.73284 19.5782 1.89398 19.5097 2.10001 19.4149C2.30605 19.32 2.52002 19.2278 2.74191 19.1382C2.96379 19.0486 3.17776 18.9695 3.3838 18.901C3.58984 18.8325 3.75625 18.7983 3.88305 18.7983C4.15776 18.7983 4.3955 18.8984 4.59626 19.0986C4.79701 19.2989 4.89739 19.5413 4.89739 19.8259C4.89739 20.0367 4.83664 20.2238 4.71513 20.3872C4.59362 20.5505 4.43777 20.6744 4.24758 20.7587C4.13135 20.8114 3.97022 20.8826 3.76418 20.9721C3.55814 21.0617 3.34417 21.1513 3.12229 21.2409C2.9004 21.3305 2.68643 21.4096 2.48039 21.4781C2.27436 21.5466 2.10794 21.5808 1.98115 21.5808C1.70643 21.5808 1.46869 21.4807 1.26793 21.2804C1.06718 21.0802 0.966799 20.8378 0.966799 20.5532ZM3.55021 6.5296C3.71927 6.5296 3.89361 6.5823 4.07324 6.6877L5.81664 7.73117C5.96457 7.81549 6.0808 7.93671 6.16533 8.09481C6.24985 8.25291 6.29212 8.42155 6.29212 8.60073C6.29212 8.87477 6.19174 9.11192 5.99098 9.31219C5.79023 9.51245 5.55249 9.61258 5.27777 9.61258C5.08758 9.61258 4.91324 9.56515 4.75475 9.47029L3.02719 8.41101C2.87927 8.31615 2.7604 8.1923 2.67058 8.03947C2.58077 7.88664 2.53587 7.72063 2.53587 7.54145C2.53587 7.26741 2.63624 7.03026 2.837 6.83C3.03776 6.62973 3.27549 6.5296 3.55021 6.5296ZM9.6046 5.56519C9.42497 5.56519 9.25327 5.51776 9.0895 5.42289C8.92572 5.32803 8.80157 5.20155 8.71704 5.04345L7.73439 3.27272C7.64986 3.12516 7.6076 2.96179 7.6076 2.7826C7.6076 2.50856 7.70798 2.27141 7.90873 2.07115C8.10949 1.87089 8.34723 1.77076 8.62195 1.77076C8.80157 1.77076 8.97327 1.81819 9.13704 1.91305C9.30082 2.00791 9.42497 2.13439 9.5095 2.29249L10.4921 4.06323C10.5767 4.21079 10.6189 4.36889 10.6189 4.53753C10.6189 4.82211 10.5186 5.06453 10.3178 5.2648C10.1171 5.46505 9.87931 5.56519 9.6046 5.56519ZM29.4161 12.6481C29.6908 12.6481 29.9285 12.7483 30.1293 12.9485C30.33 13.1488 30.4304 13.3859 30.4304 13.66C30.4304 13.934 30.33 14.1712 30.1293 14.3714C29.9285 14.5717 29.6908 14.6718 29.4161 14.6718H27.3874C27.1126 14.6718 26.8749 14.5717 26.6741 14.3714C26.4734 14.1712 26.373 13.934 26.373 13.66C26.373 13.3859 26.4734 13.1488 26.6741 12.9485C26.8749 12.7483 27.1126 12.6481 27.3874 12.6481H29.4161ZM26.5632 18.7824C26.69 18.7824 26.8538 18.8193 27.0545 18.8931C27.2553 18.9669 27.4666 19.0512 27.6885 19.1461C27.9104 19.2409 28.1243 19.3358 28.3304 19.4307C28.5364 19.5255 28.6976 19.594 28.8138 19.6362C29.004 19.7205 29.1572 19.8444 29.2734 20.0077C29.3896 20.1711 29.4478 20.3582 29.4478 20.569C29.4478 20.843 29.3474 21.0802 29.1466 21.2804C28.9459 21.4807 28.7081 21.5808 28.4334 21.5808C28.3172 21.5808 28.156 21.5466 27.95 21.4781C27.744 21.4096 27.53 21.3279 27.3081 21.233C27.0862 21.1382 26.8723 21.0459 26.6662 20.9563C26.4602 20.8667 26.2991 20.7956 26.1828 20.7429C25.9926 20.6586 25.8368 20.5321 25.7153 20.3635C25.5938 20.1948 25.533 20.0051 25.533 19.7943C25.533 19.5097 25.636 19.2699 25.8421 19.0749C26.0481 18.8799 26.2885 18.7824 26.5632 18.7824ZM27.8945 7.54145C27.8945 7.72063 27.8496 7.88664 27.7598 8.03947C27.67 8.1923 27.5511 8.31615 27.4032 8.41101L25.6756 9.47029C25.5172 9.56515 25.3428 9.61258 25.1526 9.61258C24.8779 9.61258 24.6402 9.51245 24.4394 9.31219C24.2387 9.11192 24.1383 8.87477 24.1383 8.60073C24.1383 8.42155 24.1805 8.25291 24.2651 8.09481C24.3496 7.93671 24.4658 7.81549 24.6138 7.73117L26.3572 6.6877C26.5368 6.5823 26.7111 6.5296 26.8802 6.5296C27.1549 6.5296 27.3926 6.62973 27.5934 6.83C27.7942 7.03026 27.8945 7.26741 27.8945 7.54145ZM20.8258 5.56519C20.5511 5.56519 20.3133 5.46505 20.1126 5.2648C19.9118 5.06453 19.8115 4.82211 19.8115 4.53753C19.8115 4.36889 19.8537 4.21079 19.9383 4.06323L20.9209 2.29249C21.0054 2.13439 21.1296 2.00791 21.2934 1.91305C21.4571 1.81819 21.6288 1.77076 21.8085 1.77076C22.0832 1.77076 22.3209 1.87089 22.5217 2.07115C22.7224 2.27141 22.8228 2.50856 22.8228 2.7826C22.8228 2.96179 22.7805 3.12516 22.696 3.27272L21.7134 5.04345C21.6288 5.20155 21.5047 5.32803 21.3409 5.42289C21.1771 5.51776 21.0054 5.56519 20.8258 5.56519Z" fill="#505055"></path>
</svg>

<svg xmlns="http://www.w3.org/2000/svg" viewBox="0 0 31 33"><path fill="none" d="M0 0h30.43v32.379H0z"/><path d="M15.215 6.071c1.258 0 2.441.24 3.55.72a9.27 9.27 0 0 1 2.9 1.952 9.246 9.246 0 0 1 1.958 2.893 8.793 8.793 0 0 1 .721 3.542c0 .664-.042 1.286-.127 1.865a9.049 9.049 0 0 1-.404 1.668 10.27 10.27 0 0 1-.697 1.566c-.28.51-.616 1.035-1.006 1.573a56.44 56.44 0 0 0-.809 1.138 5.968 5.968 0 0 0-.57 1.02 5.187 5.187 0 0 0-.333 1.106 7.7 7.7 0 0 0-.111 1.4v2.83c0 .421-.08.816-.238 1.185-.158.37-.375.69-.65.965-.274.274-.597.49-.966.648-.37.158-.767.237-1.19.237h-4.056c-.423 0-.82-.079-1.19-.237a3.054 3.054 0 0 1-.966-.648 3.046 3.046 0 0 1-.65-.965 2.972 2.972 0 0 1-.238-1.185v-2.846c0-.538-.037-1.002-.11-1.392a4.93 4.93 0 0 0-.341-1.098 6.79 6.79 0 0 0-.57-1.02 39.513 39.513 0 0 0-.801-1.138 14.663 14.663 0 0 1-1.007-1.574 10.27 10.27 0 0 1-.697-1.565 9.05 9.05 0 0 1-.404-1.668 12.946 12.946 0 0 1-.127-1.865c0-1.255.24-2.435.721-3.542a9.246 9.246 0 0 1 1.958-2.893 9.27 9.27 0 0 1 2.9-1.953 8.85 8.85 0 0 1 3.55-.719zm3.043 22.26h-6.086v1.013c0 .274.1.51.301.711.201.2.439.3.713.3h4.058c.275 0 .512-.1.713-.3.2-.2.301-.437.301-.711v-1.012zm0-2.023c.01-.875.12-1.626.325-2.253.206-.627.46-1.196.76-1.707.302-.512.624-.996.968-1.455.343-.458.665-.954.966-1.486a8.43 8.43 0 0 0 .745-1.81c.196-.675.294-1.481.294-2.42 0-.98-.185-1.9-.555-2.758a7.134 7.134 0 0 0-1.522-2.253 7.152 7.152 0 0 0-2.258-1.518 6.95 6.95 0 0 0-2.766-.553 6.95 6.95 0 0 0-2.765.553 7.152 7.152 0 0 0-2.259 1.518 7.134 7.134 0 0 0-1.522 2.253 6.902 6.902 0 0 0-.554 2.759c0 .938.098 1.744.293 2.419.195.674.444 1.278.745 1.81s.623 1.028.967 1.486c.343.459.665.943.966 1.455.302.51.555 1.08.761 1.707.206.627.315 1.378.325 2.253h6.086zm-3.043-22.26a.976.976 0 0 1-.713-.301.971.971 0 0 1-.301-.711V1.012c0-.274.1-.511.301-.712.2-.2.438-.3.713-.3.275 0 .513.1.713.3.201.2.302.438.302.712v2.024c0 .274-.1.51-.302.711-.2.2-.438.3-.713.3zm-14.2 10.624a.976.976 0 0 1-.714-.3A.971.971 0 0 1 0 13.66c0-.274.1-.511.301-.712.2-.2.439-.3.713-.3h2.029c.275 0 .512.1.713.3.201.2.301.438.301.712 0 .274-.1.511-.3.711-.202.2-.44.3-.714.3H1.014zm-.048 5.881c0-.21.06-.398.182-.561.122-.164.277-.287.468-.372a6.78 6.78 0 0 0 .483-.205c.206-.095.42-.187.642-.277.222-.09.436-.169.642-.237.206-.069.372-.103.499-.103.275 0 .513.1.713.3.201.2.301.443.301.728 0 .21-.06.398-.182.561a1.156 1.156 0 0 1-.467.372 35.055 35.055 0 0 1-1.126.482c-.222.09-.436.169-.642.237a1.673 1.673 0 0 1-.499.103.976.976 0 0 1-.713-.3.99.99 0 0 1-.301-.728zM3.55 6.53c.17 0 .344.052.523.158L5.817 7.73a.892.892 0 0 1 .348.364c.085.158.127.327.127.506 0 .274-.1.51-.301.711-.2.2-.439.3-.713.3a1 1 0 0 1-.523-.142L3.027 8.411a1.093 1.093 0 0 1-.356-.372.966.966 0 0 1-.135-.498c0-.274.1-.51.301-.711.2-.2.438-.3.713-.3zm6.055-.965c-.18 0-.352-.047-.516-.142a.953.953 0 0 1-.372-.38l-.983-1.77a.968.968 0 0 1-.126-.49c0-.274.1-.512.3-.712.201-.2.44-.3.714-.3.18 0 .351.047.515.142a.953.953 0 0 1 .372.38l.983 1.77a.938.938 0 0 1 .127.475.99.99 0 0 1-.301.727c-.2.2-.439.3-.713.3zm19.811 7.083c.275 0 .512.1.713.3.201.2.301.438.301.712 0 .274-.1.511-.3.711-.201.2-.44.3-.714.3h-2.029a.976.976 0 0 1-.713-.3.971.971 0 0 1-.301-.711c0-.274.1-.511.301-.712.2-.2.439-.3.713-.3h2.03zm-2.853 6.134c.127 0 .29.037.492.111.2.074.412.158.634.253.221.095.435.19.641.285.206.095.368.163.484.205.19.085.343.208.46.372.116.163.174.35.174.561 0 .274-.1.511-.301.711-.201.2-.439.3-.714.3-.116 0-.277-.033-.483-.102a8.284 8.284 0 0 1-.642-.245 110.067 110.067 0 0 1-1.125-.49 1.132 1.132 0 0 1-.468-.38.95.95 0 0 1-.182-.569c0-.284.103-.524.31-.72.205-.194.445-.292.72-.292zm1.332-11.24c0 .179-.045.345-.135.497-.09.153-.209.277-.357.372l-1.727 1.06a1 1 0 0 1-.523.142.976.976 0 0 1-.714-.3.971.971 0 0 1-.3-.712c0-.18.041-.348.126-.506.085-.158.2-.28.349-.364l1.743-1.043c.18-.106.354-.158.523-.158.275 0 .513.1.713.3.201.2.302.437.302.711zm-7.07-1.977a.976.976 0 0 1-.712-.3.99.99 0 0 1-.302-.727c0-.17.043-.327.127-.475l.983-1.77a.953.953 0 0 1 .372-.38c.164-.095.336-.142.515-.142.275 0 .513.1.714.3.2.2.3.438.3.712 0 .179-.041.342-.126.49l-.983 1.77a.953.953 0 0 1-.372.38 1.013 1.013 0 0 1-.515.142z" fill="#505055"/></svg>
